X:1708
T:Bonnie Kate of Aberdeen
P:Cropie's Strathspey
C:Peter Milne
R:Strathspey (8x40) AABAB
B:RSCDS 17-8
Z:Anselm Lingnau <anselm@strathspey.org>
M:4/4
L:1/8
K:G
|:G|"G"D>G G>E "D"F>G A>F|"G"G>B d>B "C"e3 f|\
    "G"g>b "C"e>g "G/B"d>g "Em"B<G|"A"E<A A>G "D"G>F E>D|
    "G"D>G G>E "D"F>G A>F|"G"G>B d>B "C"e3 f|\
    "G"g>b "C"e>g "G/B"d>g "Em"B<G|"A"E>A "D"G/F/E/D/ "G"G2 G:|
d|"Em"e>f g<e "Am"a>g e>f|"Em"e/f/g "A7"f>e "D"d3 B|\
  "Am"c>d e<c "Em"B>c d<B|"Am"E>A A>G "D"G>F E>D|
  "G"D<G G>E "D"F>G A>F|"G"G>B d>B "C"e3 f|\
  "G"g>b "C"e>g "G/B"d<g "Em"B<G|"A"E>A "D"G/F/E/D/ "G"G2 "D.C."G|]

